X:781
T:Danse des Paysans, Bergen. [7]
T:peasant dance from the Bj\/orgvin Diocese, Norway
C:John Malchair's Third Collection of Tunes
F:https://www.vwml.org/record/Malchair/3619/p78
F:www.vwml.org/topics/historic-dance-and-tune-books/Malchair
Z:Eric Conrad Mar 2020
N:No title in MS.
M:2/4
L:1/16
K:D
P:A
|: ABAG A2FD | ABAG A2FD | ABAG ABcA | d2BG A2FD :|
P:B
|: DEDC DEFD | G2 GE F2 FD | DEDC DEFD | G2 GE F2FE | DEDC D4 :|

